X:0080
T:The Fyket.
M:2/4
L:1/8
Q:1/4=104
I: :: ::
Z:Jack Campin * www.campin.me.uk * 2009
K:A Mixolydian
g| fAeA     |  fAAg| fAeA     |BGG
g| fAeA     | ^ceag| fdec     |BGG:|
g|(f/g/a) ef|T^cAAg|(f/g/a) eg|BGG
g|(f/g/a) eg|  faeg| fdec     |BGG:|

